rospo-icon-theme-classic-common/24x24/apps/pingus-icon.svg

<svg height="24" viewBox="0 0 24 24" width="24" xmlns="http://www.w3.org/2000/svg"><circle cx="12" cy="12.5" opacity=".2" r="10"/><circle cx="12" cy="12" fill="#4f4f4f" r="10"/><path d="m12 2a10 10 0 0 0 -10 10 10 10 0 0 0  .01075.291 10 10 0 0 1 9.98925-9.791 10 10 0 0 1 9.9895 9.709 10 10 0 0 0  .0105-.209 10 10 0 0 0 -10-10z" fill="#fff" opacity=".1"/><path d="m8 11.5a4 3.7997427 0 0 0 -3.8554688 2.803563c-.0908084.200639-.1445312.434521-.1445312.715425 0 .04303.00678.08469.00781.127519a4 3.7997427 0 0 0 -.00781.153775 4 3.7997427 0 0 0  .2783203 1.391466c.9117177 2.767061 4.0187497 4.808252 7.7216797 4.808252 3.724139 0 6.844828-2.064808 7.736328-4.856071a4 3.7997427 0 0 0  .263672-1.343647 4 3.7997427 0 0 0 -.006836-.177216c.000688-.034998.006836-.068948.006836-.104078 0-.272259-.05119-.499957-.136719-.696672a4 3.7997427 0 0 0 -3.863281-2.822316 4 3.7997427 0 0 0 -3.955078 3.261135c-.004195.001735-.044922.017815-.044922.017815s-.04073-.01608-.04492-.01782a4 3.7997427 0 0 0 -3.95508-3.26113z" opacity=".2"/><path d="m8 11a4 3.7997427 0 0 0 -3.8554688 2.803563c-.0908084.200639-.1445312.434521-.1445312.715425 0 .04303.00678.08469.00781.127519a4 3.7997427 0 0 0 -.00781.153775 4 3.7997427 0 0 0  .2783203 1.391466c.9117177 2.767061 4.0187497 4.808252 7.7216797 4.808252 3.724139 0 6.844828-2.064808 7.736328-4.856071a4 3.7997427 0 0 0  .263672-1.343647 4 3.7997427 0 0 0 -.006836-.177216c.000688-.034998.006836-.068948.006836-.104078 0-.272259-.05119-.499957-.136719-.696672a4 3.7997427 0 0 0 -3.863281-2.822316 4 3.7997427 0 0 0 -3.955078 3.261135c-.004195.001735-.044922.017815-.044922.017815s-.04073-.01608-.04492-.01782a4 3.7997427 0 0 0 -3.95508-3.26113z" fill="#fff"/><circle cx="9" cy="15" fill="#3f3f3f" r="1"/><circle cx="15" cy="15" fill="#3f3f3f" r="1"/><path d="m20.779291 31.72315h4 4l-2 3.464101-2 3.464102-2-3.464102z" fill="#e31b1b" opacity=".767" transform="matrix(.5 0 0 .4330127 -.389646 3.263473)"/></svg>

<svg xmlns="http://www.w3.org/2000/svg" width="24" height="24" version="1.1" viewBox="0 0 24 24">
 <circle style="opacity:0.2" cx="12" cy="12.5" r="10"/>
 <circle style="fill:#4f4f4f" cx="12" cy="12" r="10"/>
 <path style="opacity:0.1;fill:#ffffff" d="M 12,2 A 10,10 0 0 0 2,12 10,10 0 0 0 2.01075,12.291 10,10 0 0 1 12,2.5 10,10 0 0 1 21.9895,12.209 10,10 0 0 0 22,12 10,10 0 0 0 12,2 Z"/>
 <path d="M 8,11.5 A 4,3.7997427 0 0 0 4.1445312,14.303563 C 4.0537228,14.504202 4,14.738084 4,15.018988 c 0,0.04303 0.00678,0.08469 0.00781,0.127519 A 4,3.7997427 0 0 0 4,15.300282 4,3.7997427 0 0 0 4.2783203,16.691748 C 5.190038,19.458809 8.29707,21.5 12,21.5 c 3.724139,0 6.844828,-2.064808 7.736328,-4.856071 A 4,3.7997427 0 0 0 20,15.300282 4,3.7997427 0 0 0 19.993164,15.123066 C 19.993852,15.088068 20,15.054118 20,15.018988 20,14.746729 19.94881,14.519031 19.863281,14.322316 A 4,3.7997427 0 0 0 16,11.5 4,3.7997427 0 0 0 12.044922,14.761135 C 12.040727,14.76287 12,14.77895 12,14.77895 c 0,0 -0.04073,-0.01608 -0.04492,-0.01782 A 4,3.7997427 0 0 0 8,11.5 Z" style="opacity:0.2"/>
 <path style="fill:#ffffff" d="M 8,11 A 4,3.7997427 0 0 0 4.1445312,13.803563 C 4.0537228,14.004202 4,14.238084 4,14.518988 c 0,0.04303 0.00678,0.08469 0.00781,0.127519 A 4,3.7997427 0 0 0 4,14.800282 4,3.7997427 0 0 0 4.2783203,16.191748 C 5.190038,18.958809 8.29707,21 12,21 c 3.724139,0 6.844828,-2.064808 7.736328,-4.856071 A 4,3.7997427 0 0 0 20,14.800282 4,3.7997427 0 0 0 19.993164,14.623066 C 19.993852,14.588068 20,14.554118 20,14.518988 20,14.246729 19.94881,14.019031 19.863281,13.822316 A 4,3.7997427 0 0 0 16,11 4,3.7997427 0 0 0 12.044922,14.261135 C 12.040727,14.26287 12,14.27895 12,14.27895 c 0,0 -0.04073,-0.01608 -0.04492,-0.01782 A 4,3.7997427 0 0 0 8,11 Z"/>
 <circle style="fill:#3f3f3f" cx="9" cy="15" r="1"/>
 <circle cx="15" cy="15" r="1" style="fill:#3f3f3f"/>
 <path style="opacity:0.76700003;fill:#e31b1b" d="m 20.779291,31.72315 4,0 4,0 -2,3.464101 -2,3.464102 -2,-3.464102 z" transform="matrix(0.5,0,0,0.4330127,-0.38964559,3.2634732)"/>
</svg>
